X: 2
T: The House Of Hamill
R: reel
M: 4/4
L: 1/8
K: Edor
EBBA BFAF|EBBc dAFD|EBBA (3Bcd ef|gfec dAFD|EBBA BFAF|EBBc dAFD|EBBA (3Bcd ef|gfec dAFA|BE~E2 dE~E2|BE~E2 dAFA|BE~E2 (3Bcd ef|gfec dAFA|BE~E2 dE~E2|BE~E2 dAFA|BE~E2 (3Bcd ef|gfec dAFA|B2^GB eBGB|BA^GB ADFA|B2^GB eBGB|=gfec dAFA|B2^GB eBGB|BA^GB ADFA|BA=GF GBef|gfec dAFD|B2^GB eBGB|BA^GB ADFA|BA=GF GBef|gfec dAFD|


Tune 2677	Setting 28506

